images/continents/south-america/leagues/brasileirao-serie-a/clubs/américa-mineiro.svg

<svg xmlns="http://www.w3.org/2000/svg" xmlns:xlink="http://www.w3.org/1999/xlink" width="1080" zoomAndPan="magnify" viewBox="0 0 810 809.999993" height="1080" preserveAspectRatio="xMidYMid meet" version="1.0"><defs><clipPath id="01aeda7920"><path d="M 60.570312 0 L 749.070312 0 L 749.070312 810 L 60.570312 810 Z M 60.570312 0 " clip-rule="nonzero"/></clipPath></defs><path fill="#ffffff" d="M 404.753906 15.777344 C 298.292969 95.269531 168.632812 86.765625 79.941406 52.195312 C 66.015625 200.144531 38.917969 552.613281 404.835938 794.820312 C 771.210938 552.757812 743.492188 200.144531 729.726562 52.195312 C 641.042969 86.761719 511.199219 95.273438 404.753906 15.777344 Z M 404.753906 15.777344 " fill-opacity="1" fill-rule="nonzero"/><g clip-path="url(#01aeda7920)"><path stroke-linecap="butt" transform="matrix(0.903304, 0, 0, 0.903766, 47.949354, -127.34599)" fill="none" stroke-linejoin="miter" d="M 394.999254 158.363329 C 277.142039 246.319969 133.602208 236.910553 35.416692 198.65914 C 20.000203 362.362222 -9.998164 752.362394 395.090066 1020.360008 C 800.684251 752.522316 769.998304 362.362222 754.759116 198.65914 C 656.582249 236.906231 512.839171 246.324291 394.999254 158.363329 Z M 394.999254 158.363329 " stroke="#007f4e" stroke-width="28" stroke-opacity="1" stroke-miterlimit="4"/></g><path fill="#007f4e" d="M 385.675781 580.253906 C 363.5625 579.417969 321.238281 569.367188 295.136719 549.484375 L 295.136719 570.480469 C 295.136719 596.78125 261.605469 596.78125 261.605469 570.480469 L 261.605469 527.722656 C 154.109375 395.648438 217.566406 229.339844 385.675781 201.613281 L 385.675781 160.203125 L 290.976562 160.203125 C 264.792969 160.203125 264.792969 128.101562 290.976562 128.101562 L 521.175781 128.101562 C 547.359375 128.101562 547.359375 160.203125 521.175781 160.203125 L 422.660156 160.203125 L 422.660156 201.613281 C 467.089844 203.113281 531.21875 236.296875 564.640625 278.773438 C 580.898438 299.558594 553.800781 317.632812 540.183594 301.730469 C 495.085938 254.371094 463.828125 240.476562 422.660156 234.308594 L 422.660156 285.402344 L 482.546875 285.402344 C 496.804688 314.878906 505.847656 344.164062 515.109375 375.109375 L 534.734375 375.109375 C 561.722656 375.109375 561.183594 412.84375 534.648438 412.84375 L 523.6875 412.84375 C 528.511719 435.304688 532.308594 457.925781 535.890625 480.605469 C 538.84375 477.347656 546.574219 467.660156 549.285156 464.042969 C 562.832031 450.488281 588.125 468.5625 576.382812 485.734375 C 562.832031 502.90625 554.21875 513.769531 539.355469 529.980469 L 539.484375 570.480469 C 539.566406 596.132812 508.976562 596.730469 506.121094 570.480469 L 504.378906 554.453125 C 481.121094 569.160156 458.539062 578.621094 422.660156 583.417969 L 422.660156 661.121094 C 422.660156 688.128906 385.675781 688.128906 385.675781 661.121094 Z M 385.675781 486.984375 L 300.3125 486.984375 L 297.660156 515.335938 C 297.839844 528.3125 372.324219 549.46875 385.675781 547.847656 Z M 505.734375 512.625 L 502.296875 486.984375 L 422.660156 486.984375 L 422.660156 547.847656 C 422.660156 555.050781 483.976562 538.390625 505.734375 512.625 Z M 317.128906 285.402344 L 385.675781 285.402344 L 385.675781 234.308594 C 227.121094 270.148438 220.097656 400.632812 269.671875 486.984375 C 275.457031 416.632812 292.023438 349.480469 317.128906 285.402344 Z M 385.675781 317.238281 C 371.449219 316.738281 350.375 317.738281 336.148438 317.238281 C 320.347656 362.679688 311.84375 407.667969 304.253906 454.023438 C 331.503906 454.023438 358.429688 454.023438 385.675781 454.023438 Z M 489.488281 412.84375 L 422.660156 412.84375 L 422.660156 454.023438 C 446.125 454.023438 474.109375 454.023438 497.574219 454.023438 Z M 483.695312 375.109375 L 466.601562 317.238281 C 454.988281 316.730469 434.277344 317.746094 422.660156 317.238281 L 422.660156 375.109375 Z M 483.695312 375.109375 " fill-opacity="1" fill-rule="nonzero"/></svg>

<svg xmlns="http://www.w3.org/2000/svg" width="1080" viewBox="0 0 810 810" height="1080" version="1.0"><defs><clipPath id="a"><path d="M60.57 0h688.5v810H60.57Zm0 0"/></clipPath></defs><path fill="#fff" d="M404.754 15.777C298.293 95.27 168.633 86.766 79.94 52.195 66.016 200.145 38.918 552.613 404.836 794.82 771.21 552.758 743.492 200.145 729.726 52.195 641.044 86.762 511.2 95.273 404.755 15.777Zm0 0"/><g clip-path="url(#a)"><path transform="matrix(.9033 0 0 .90377 47.95 -127.346)" fill="none" d="M395 158.363C277.141 246.32 133.601 236.911 35.416 198.66 20 362.362-9.998 752.362 395.09 1020.36c405.594-267.838 374.908-657.998 359.67-821.7-98.178 38.246-241.92 47.664-359.76-40.297Zm0 0" stroke="#007f4e" stroke-width="28"/></g><path fill="#007f4e" d="M385.676 580.254c-22.113-.836-64.438-10.887-90.54-30.77v20.996c0 26.301-33.53 26.301-33.53 0v-42.757c-107.497-132.075-44.04-298.383 124.07-326.11v-41.41h-94.7c-26.183 0-26.183-32.101 0-32.101h230.2c26.183 0 26.183 32.101 0 32.101H422.66v41.41c44.43 1.5 108.559 34.684 141.98 77.16 16.258 20.786-10.84 38.86-24.456 22.957-45.098-47.359-76.356-61.253-117.524-67.421v51.093h59.887c14.258 29.477 23.3 58.762 32.562 89.707h19.625c26.989 0 26.45 37.735-.086 37.735h-10.96c4.824 22.46 8.62 45.082 12.203 67.761 2.953-3.257 10.683-12.945 13.394-16.562 13.547-13.555 38.84 4.52 27.098 21.691-13.551 17.172-22.164 28.036-37.028 44.246l.13 40.5c.081 25.653-30.508 26.25-33.364 0l-1.742-16.027c-23.258 14.707-45.84 24.168-81.719 28.965v77.703c0 27.008-36.984 27.008-36.984 0Zm0-93.27h-85.363l-2.653 28.352c.18 12.976 74.664 34.133 88.016 32.512Zm120.058 25.641-3.437-25.64H422.66v60.863c0 7.203 61.317-9.457 83.074-35.223ZM317.13 285.402h68.547V234.31c-158.555 35.84-165.578 166.324-116.004 252.675 5.785-70.351 22.351-137.504 47.457-201.582Zm68.547 31.836c-14.227-.5-35.301.5-49.528 0-15.8 45.442-24.304 90.43-31.894 136.785h81.422Zm103.812 95.606H422.66v41.18h74.914Zm-5.793-37.735-17.093-57.87c-11.614-.509-32.325.507-43.942 0v57.87Zm0 0"/></svg>
